svg/furkot/freepik/laundry.svg

<svg viewBox="0 0 512 512" xmlns="http://www.w3.org/2000/svg"><path d="m47.959 463h416.08v49h-416.08zm256-367v-96h-256v433h416.082v-337zm-79.959-64h30v30h-30zm-57.667 0h30v30h-30zm-57.666 0h30v30h-30zm147.333 367c-72.969 0-132.333-59.365-132.333-132.333s59.364-132.334 132.333-132.334 132.333 59.365 132.333 132.334c0 72.968-59.364 132.333-132.333 132.333z"/><path d="m333.96 0h130.08v66h-130.08zm-11.302 281.651c-6.851 30.493-34.127 53.349-66.658 53.349-37.679 0-68.333-30.654-68.333-68.333s30.654-68.333 68.333-68.333c32.52 0 59.788 22.841 66.651 53.317h34.578c-7.286-49.334-49.903-87.318-101.229-87.318-56.427 0-102.333 45.906-102.333 102.333s45.906 102.334 102.333 102.334c51.337 0 93.961-38 101.233-87.349z"/><path d="m256 228.333c-21.137 0-38.333 17.196-38.333 38.333 0 21.138 17.196 38.334 38.333 38.334s38.333-17.196 38.333-38.333-17.196-38.334-38.333-38.334z"/></svg>

<svg xmlns="http://www.w3.org/2000/svg" viewBox="0 0 512 512"><path d="M47.959 463H464.039V512H47.959zM303.959 96V0h-256v433h416.082V96H303.959zM224 32h30v30h-30V32zM166.333 32h30v30h-30V32zM108.667 32h30v30h-30V32zM256 399c-72.969 0-132.333-59.365-132.333-132.333S183.031 134.333 256 134.333s132.333 59.365 132.333 132.334C388.333 339.635 328.969 399 256 399z"/><path d="M333.96 0H464.03999999999996V66H333.96zM322.658 281.651C315.807 312.144 288.531 335 256 335c-37.679 0-68.333-30.654-68.333-68.333s30.654-68.333 68.333-68.333c32.52 0 59.788 22.841 66.651 53.317h34.578c-7.286-49.334-49.903-87.318-101.229-87.318-56.427 0-102.333 45.906-102.333 102.333S199.573 369 256 369c51.337 0 93.961-38 101.233-87.349H322.658z"/><path d="M256,228.333c-21.137,0-38.333,17.196-38.333,38.333C217.667,287.804,234.863,305,256,305 c21.137,0,38.333-17.196,38.333-38.333S277.137,228.333,256,228.333z"/></svg>
